src/pos-icons/delete-alert-outline.svg

<svg height="24" viewBox="0 0 24 24" width="24" xmlns="http://www.w3.org/2000/svg"><path d="m4 19v-12h12v12c0 1.1-.9 2-2 2h-8c-1.1 0-2-.9-2-2m2-10v10h8v-10zm7.5-5h3.5v2h-14v-2h3.5l1-1h5zm5.5 14v-2h2v2zm0-4v-5h2v5z"/></svg>

<?xml version="1.0" encoding="UTF-8"?><!DOCTYPE svg PUBLIC "-//W3C//DTD SVG 1.1//EN" "http://www.w3.org/Graphics/SVG/1.1/DTD/svg11.dtd"><svg xmlns="http://www.w3.org/2000/svg" xmlns:xlink="http://www.w3.org/1999/xlink" version="1.1" id="mdi-delete-alert-outline" width="24" height="24" viewBox="0 0 24 24"><path d="M4 19V7H16V19C16 20.1 15.1 21 14 21H6C4.9 21 4 20.1 4 19M6 9V19H14V9H6M13.5 4H17V6H3V4H6.5L7.5 3H12.5L13.5 4M19 18V16H21V18H19M19 14V9H21V14H19Z" /></svg>
